X:1
T:Chasse rigueur loing de toy
T:Clément  Janequin
T:Source : Livre IX de 27 chansons nouvelles à 4 parties---Paris---N.du Chemin---1551. Editor : André Vierendeels (06/04/18) Notes : Original clefs : C1, C3, C4, F4 Original note values have been halved Editorial accidentals above the staff
T:Chasse rigueur loing de toy
T:©
T:©
T:©
T:©
C:Clément  Janequin
Z:©
%%score [ 1 [ 2 3 ] 4 ]
L:1/8
Q:1/4=120
M:2/2
K:F
V:1 treble nm="Soprano" snm="S"
V:2 treble-8 nm="Tenor 1" snm="T 1"
V:3 treble-8 nm="Tenor 2" snm="T 2"
V:4 bass nm="Bass" snm="B"
V:1
 E4 E2 E2 | F2 E2 E2 F2 | G4 E2 F2- | FEDC D4 |"^#" C4 z2 C2 | F2 F2 E2 c2 | B2 A4 G2 |1 %7
w: Chas- se ri-|gueur loing de toy,|qui es bel-||le, bien|n'est se- ant a-|vec u- ne|
w: |||||||
w: Qui est en|toy lo- gée, com-|pai- gne tel-||le, beaul-|té n'a rien com-|mun à cru-|
 A2 F2 E4 :|2 A2 F2 E4 || z2 E2 G2 G2 | F2 F2 E2 E2 | E2 E2 D2 D2 | C2 C2 D2 B,2 | C2 C2 E2 E2 | %14
w: beaul- * té,||doul- ceur pro-|mect, et non au-|ste- ri- té, cet|oeil tant doulx, cet|oeil tant doulx, il|
w: |aul- * té,||||||
w: |||||||
 D2 F2 E2 D2- | D2 C4 B,2 | C2 C2 F2 G2 | A2 c2 c2 B2 | A2 A2 A4 | F2 c2 B2 A2- | A2 G2 G4 | %21
w: te dit pi- toy-|* a- *|ble, à ton vi-|sa- g'est pi- tié|con- ve- na-|ble, or fault il|_ donc (ou|
w: |||||||
w: |||||||
 G2 E2 G2 G2 | FEFG A4 | z2 B2 A2 G2 | G2 F2 G4 | G2 E2 G2 G2 | FEFG A4 | z2 B2 A2 G2 | G2 F2 G4 | %29
w: que fain- cte'on te|di- * * * se,)|(ou que fain-|cte'on te di-|se,) chan- gez ce|port, _ _ _ _|et gra- ce|tant ay- ma-|
w: ||||||||
w: ||||||||
 G4 c4 | c2 c2 A3 B/c/ | d3 c BAGF | EDEF G2 c2 | c2 c2 A2 A2 | G2 F4 E2 | F8 |] %36
w: ble, ou|que ri- gueur _ _|_ _ _ _ _ _|* * * * * par|toy soit a- doul-|ci- * *|e.|
w: |||||||
w: |||||||
V:2
 c4 c2 c2 | d2 c2 c2 d2 | d4 c2 c2- | cB A4 G2 | A2 A2 A2 A2 | A2 d2 c3 B/A/ | d2 d2 dcde |1 %7
w: Chas- se ri-|gueur loing de toy,|qui es bel-||le, bien n'est se-|ant a- vec _ _|_ u- ne- * * *|
w: Qui est en|toy lo- gée, com-|pai- gne tel-||le, beaul- té n'a|rien com- mun _ _|_ à cru- * * *|
 f2 d2 c4 :|2 f2 d2 c4 || z2 c2 d2 d2 | d2 d2 c2 c2 | c2 c2 A2 G2 | A2 A2 B2 F2 | G2 G2 c2 c2 | %14
w: * beaul- té,|aul- * té,|doul- ceur pro-|mect, et non au-|ste- ri- té, cet|oeil tant doulx, cet|doulx, il te dit|
w: |||||||
 AGAB c2 B2- | BAGF G4 | G2 G2 d2 e2 | f2 e2 c2 g2 | e2 e2 f3 e/d/ | d2 F3 EFG | AB c4 B2 | %21
w: pi- * * * * toy-|* * * * a-|ble, à ton vi|sa- g'est pi- tié|con- ve- na- * *|||
w: |||||||
 c4 z2 G2 | B2 B2 FGAB | c2 f2 f2 e2 | d2 c2 d4 | c4 z2 G2 | B2 B2 FGAB | c2 f2 f2 e2 | d2 c2 d4 | %29
w: ble, or|fault il donc _ _ _|_ (ou que fain-|cte'on te di-|se), chan-|gez ce port _ _ _|_ et gra- ce|tant ay- ma-|
w: ||||||||
 e2 e2 e2 e2 | c4 z2 f2 | f2 f2 d2 d2 | c3 B G4 | F2 f2 f2 c2 | d2 B2 c4 | c8 |] %36
w: ble, ou que ri-|gueur par|toy soit doul- ci-||e, par toy soit|a- doul- ci-|e.|
w: |||||||
V:3
 A4 A2 A2 | D2 A2 A2 A2 | B4 G2 A2- | AGFE D4 | E2 E2 F2 E2 | DEFG A2 F2 | G2 A2 B2 B2 |1 A8 :|2 %8
w: Chas- se ri-|gueur loing de toy,|qui es bel-||le, bien n'est se-|ant _ _ _ _ a-|vec u- ne beaul-|té,|
w: Qui est en|toy lo- gée, com-|pai- gne tel-||le, beaul- té n'a|rien _ _ _ _ com-|mun à cru- aul|_|
 A4 z2 A2 || GFGA B2 B2 | A2 A2 A2 A2 | G2 G2 F2 D2 | F4 F4 | E8 | z2 D2 G2 G2 | F2 E2 D4 | %16
w: té, doul-|ceur _ _ _ _ pro-|mect, et non au-|ste- ri- té, cet|oeil tant|doulx,|il te dit|pi- toy- a-|
w: ||||||||
 C4 z2 C2 | F2 G2 A2 d2 | c2 c2 c2 c2 | A3 B/c/ dc f2- | f2 e2 d4 | c8 | z2 d2 f2 f2 | %23
w: ble, à|ton vi- sa- g'est|pi- tié con- ve-|na- * * * * *||ble,|or fault il|
w: |||||||
 e2 d2 c2 c2 | B2 A2 B4 | c8 | z2 d2 f2 f2 | e2 d2 c2 c2 | B2 A2 B4 | c2 c2 c2 c2 | AGAB c2 A2 | %31
w: donc (ou que fain-|cte'on te di-|se),|chan- gez ce|port, et gra- ce|tant ay- ma-|ble, ou que ri-|gueur, _ _ _ _ ou|
w: ||||||||
 B2 B2 F2 G2 | G2 G2 E2 E2 | AGAB c3 B/A/ | BAGF G4 | F8 |] %36
w: que ri- gueur par|toy soit a- doul-|ci- * * * * * *||e.|
w: |||||
V:4
 z8 |"^-natural" z2 A,,2 A,,2 D,2 | G,,3 A,,/B,,/ C,B,,A,,G,, | F,,2 F,,2 B,,4 | A,,4 z2 A,,2 | %5
w: |Loing de toy|qui _ _ _ _ _ _|_ es bel-|le, bien|
w: |Lo- gée, com-|pai- * * * * * *|* gne tel-|le, beaul-|
 D,2 D,2 A,,2 A,2 | G,2 F,2 G,2 G,2 |1 D,4 z4 :|2 D,4 z4 || z2 C,2 G,,A,,B,,C, | %10
w: n'est se- ant a-|vec u- ne beaul-|té,|té,|doul- ceur _ _ _|
w: té n'a rien com-|mun à cru- aul|_|||
 D,2 D,2 A,,2 A,,2 |"^-natural" C,2 C,2 D,2 B,,2 | F,,2 F,,2 B,,2 D,2 | C,4 A,,4 | %14
w: _ pro- mect, et|non au- ste- ri-|té, cet oeil tant|doulx, il|
w: ||||
 D,2 D,2 C,2 G,,2 | B,,2 C,2 G,,4 | C,4 z4 | z2 C,2 F,2 G,2 | A,2 A,2 F,2 F,2 | F,2 F,2 B,,C,D,E, | %20
w: te dit pi- toy-|a- * *|ble,|à ton vi-|sa- g'est pi- tié|con- ve- na- * * *|
w: ||||||
 F,2 C,2 G,4 | C,2 C,2 E,2 E,2 | B,,4 z4 | z2 B,,2 F,2 C,2 | G,2 A,2 G,4 | C,2 C,2 E,2 E,2 | %26
w: |ble, or fault il|donc|(ou que fain-|cte'on te di-|se,) chan- gez ce|
w: ||||||
 B,,4 z4 | z2 B,,2 F,2 C,2 | G,2 A,2 G,4 | C,8 | F,8 | B,,4 B,,4 | C,8 | z2 F,2 F,2 F,2 | %34
w: port,|et gra- ce|tant ay- ma-|ble,|ou|que ri-|gueur|par toy soit|
w: ||||||||
 B,,2 D,2 C,4 | F,,8 |] %36
w: a- doul- ci-|e.|
w: ||

